svg/icon/san.svg

<svg xmlns="http://www.w3.org/2000/svg" xmlns:xlink="http://www.w3.org/1999/xlink" width="32" height="32" viewBox="0 0 32 32">
  <defs>
    <linearGradient id="san-c" x1="50%" x2="50%" y1="0%" y2="100%">
      <stop offset="0%" stop-color="#FFF" stop-opacity=".5"/>
      <stop offset="100%" stop-opacity=".5"/>
    </linearGradient>
    <circle id="san-b" cx="16" cy="15" r="15"/>
    <filter id="san-a" width="111.7%" height="111.7%" x="-5.8%" y="-4.2%" filterUnits="objectBoundingBox">
      <feOffset dy=".5" in="SourceAlpha" result="shadowOffsetOuter1"/>
      <feGaussianBlur in="shadowOffsetOuter1" result="shadowBlurOuter1" stdDeviation=".5"/>
      <feComposite in="shadowBlurOuter1" in2="SourceAlpha" operator="out" result="shadowBlurOuter1"/>
      <feColorMatrix in="shadowBlurOuter1" values="0 0 0 0 0   0 0 0 0 0   0 0 0 0 0  0 0 0 0.199473505 0"/>
    </filter>
    <path id="san-e" d="M26.999683,15.0390148 C26.9527145,21.1470481 22.0025382,26.0453323 15.923027,25.9996835 C9.83834592,25.9532647 4.95130767,20.9807323 5.00036614,14.8856788 C5.04953462,8.85046365 10.0135705,3.95987917 16.0493031,4.00024813 C22.1307942,4.04149707 27.0454416,8.99576992 26.999683,15.0390148 Z M5.79641143,15.0038157 C5.80741108,20.6236815 10.3536799,25.161395 15.9845151,25.1730547 C21.62217,25.1846044 26.2214572,20.6159817 26.2015478,14.9899561 C26.1808685,9.13062646 21.3272692,4.70972992 15.7396627,4.80564746 C10.3378404,4.89848508 5.78508178,9.49031723 5.79608144,15.0037057 L5.79641143,15.0038157 Z M18.6814113,10.2282883 C18.5255462,10.7256955 18.3801307,11.1896636 18.273544,11.5296649 C17.5161075,11.4053681 16.8133393,11.2563219 16.1029814,11.1862537 C15.6812545,11.1445648 15.2437981,11.2548919 15.0800132,11.7301897 C14.9119384,12.2172572 14.891919,12.7362239 15.2953865,13.1116443 C15.7087536,13.4966344 16.1955985,13.8017666 16.6490044,14.1436378 C17.0661115,14.4581197 17.5247972,14.7321227 17.8888859,15.0994033 C18.8758853,16.0949877 19.0513298,17.3029767 18.6456624,18.6049033 C18.4050999,19.3767535 17.8341076,19.864371 17.1024104,20.1609234 C15.9823151,20.6147717 14.0746444,20.3919174 13.0043776,19.6712159 C13.1651926,19.2033979 13.3312875,18.7201803 13.4732931,18.3072509 C14.1561518,18.4869863 14.7800525,18.7032408 15.4223225,18.8050982 C16.0344535,18.9016757 16.6754036,18.8079581 16.9892239,18.1831741 C17.3052441,17.5537703 17.2054772,16.8896073 16.7103825,16.3842803 C16.3281444,15.9942303 15.8489993,15.6967979 15.4021932,15.3723063 C15.1037724,15.1558318 14.7705928,14.9858862 14.4806418,14.759622 C13.3161079,13.8514853 12.9357397,12.3338542 13.5258714,10.980779 C13.8096626,10.3305857 14.3223567,9.90929648 14.9959758,9.74881059 C16.2507068,9.45082824 17.468149,9.58612477 18.6814113,10.2282883 Z M10.6019422,14.8184705 C10.5983123,15.5182725 10.0368898,16.084648 9.34391127,16.0877279 C8.64466298,16.0910278 8.04595158,15.4813135 8.06245106,14.7836014 C8.07873056,14.0995289 8.67172214,13.5296336 9.3560109,13.5398633 C10.0559192,13.550423 10.6056821,14.1145985 10.6019422,14.8184705 Z M22.6944167,13.5746224 C23.3923451,13.5738524 23.9118589,14.0888592 23.9210986,14.7907512 C23.9304483,15.5127727 23.3548362,16.0982876 22.6451383,16.0880579 C21.9498498,16.0780482 21.3931571,15.5094727 21.3934871,14.8096707 C21.3938171,14.0780795 21.9233407,13.5752824 22.6944167,13.5746224 Z"/>
    <filter id="san-d" width="115.9%" height="115.9%" x="-8%" y="-5.7%" filterUnits="objectBoundingBox">
      <feOffset dy=".5" in="SourceAlpha" result="shadowOffsetOuter1"/>
      <feGaussianBlur in="shadowOffsetOuter1" result="shadowBlurOuter1" stdDeviation=".5"/>
      <feColorMatrix in="shadowBlurOuter1" values="0 0 0 0 0   0 0 0 0 0   0 0 0 0 0  0 0 0 0.204257246 0"/>
    </filter>
  </defs>
  <g fill="none" fill-rule="evenodd">
    <g fill-rule="nonzero">
      <use fill="#000" filter="url(#san-a)" xlink:href="#san-b"/>
      <use fill="#2B77B3" fill-rule="evenodd" xlink:href="#san-b"/>
      <use fill="url(#san-c)" fill-rule="evenodd" style="mix-blend-mode:soft-light" xlink:href="#san-b"/>
      <circle cx="16" cy="15" r="14.5" stroke="#000" stroke-opacity=".097"/>
    </g>
    <g fill-rule="nonzero">
      <use fill="#000" filter="url(#san-d)" xlink:href="#san-e"/>
      <use fill="#FFF" fill-rule="evenodd" xlink:href="#san-e"/>
    </g>
  </g>
</svg>

<svg xmlns="http://www.w3.org/2000/svg" xmlns:xlink="http://www.w3.org/1999/xlink" width="32" height="32"><defs><linearGradient id="c" x1="50%" x2="50%" y1="0%" y2="100%"><stop offset="0%" stop-color="#FFF" stop-opacity=".5"/><stop offset="100%" stop-opacity=".5"/></linearGradient><circle id="b" cx="16" cy="15" r="15"/><filter id="a" width="111.7%" height="111.7%" x="-5.8%" y="-4.2%" filterUnits="objectBoundingBox"><feOffset dy=".5" in="SourceAlpha" result="shadowOffsetOuter1"/><feGaussianBlur in="shadowOffsetOuter1" result="shadowBlurOuter1" stdDeviation=".5"/><feComposite in="shadowBlurOuter1" in2="SourceAlpha" operator="out" result="shadowBlurOuter1"/><feColorMatrix in="shadowBlurOuter1" values="0 0 0 0 0 0 0 0 0 0 0 0 0 0 0 0 0 0 0.199473505 0"/></filter><path id="e" d="M27 15.039c-.047 6.108-4.997 11.006-11.077 10.96C9.838 25.954 4.951 20.982 5 14.887 5.05 8.85 10.014 3.96 16.05 4 22.13 4.041 27.044 8.996 27 15.04zm-21.204-.035c.011 5.62 4.558 10.157 10.189 10.17 5.637.01 10.236-4.558 10.217-10.184C26.18 9.13 21.327 4.71 15.74 4.806c-5.402.092-9.955 4.684-9.944 10.198zm12.885-4.776l-.407 1.302c-.758-.125-1.46-.274-2.171-.344-.422-.041-.86.069-1.023.544-.168.487-.188 1.006.215 1.382.414.385.9.69 1.354 1.032.417.314.876.588 1.24.955.987.996 1.162 2.204.757 3.506-.24.772-.812 1.26-1.544 1.556-1.12.454-3.027.23-4.098-.49l.47-1.364c.682.18 1.306.396 1.948.498.612.097 1.253.003 1.567-.622.316-.63.216-1.293-.279-1.799-.382-.39-.861-.687-1.308-1.012-.298-.216-.631-.386-.921-.612a3.137 3.137 0 0 1-.955-3.78 2.077 2.077 0 0 1 1.47-1.231c1.255-.298 2.472-.163 3.685.48zm-8.08 4.59a1.27 1.27 0 0 1-1.257 1.27c-.7.003-1.298-.607-1.282-1.304a1.295 1.295 0 0 1 1.294-1.244c.7.01 1.25.575 1.246 1.278zm12.093-1.243c.698-.001 1.218.514 1.227 1.216a1.268 1.268 0 0 1-1.276 1.297 1.273 1.273 0 0 1-1.252-1.278c0-.732.53-1.235 1.301-1.235z"/><filter id="d" width="115.9%" height="115.9%" x="-8%" y="-5.7%" filterUnits="objectBoundingBox"><feOffset dy=".5" in="SourceAlpha" result="shadowOffsetOuter1"/><feGaussianBlur in="shadowOffsetOuter1" result="shadowBlurOuter1" stdDeviation=".5"/><feColorMatrix in="shadowBlurOuter1" values="0 0 0 0 0 0 0 0 0 0 0 0 0 0 0 0 0 0 0.204257246 0"/></filter></defs><g fill="none"><use fill="#000" filter="url(#a)" xlink:href="#b"/><use fill="#2B77B3" fill-rule="evenodd" xlink:href="#b"/><use fill="url(#c)" fill-rule="evenodd" style="mix-blend-mode:soft-light" xlink:href="#b"/><circle cx="16" cy="15" r="14.5" stroke="#000" stroke-opacity=".097"/><use fill="#000" filter="url(#d)" xlink:href="#e"/><use fill="#FFF" fill-rule="evenodd" xlink:href="#e"/></g></svg>
